X: 107
T: Butter'd Pease
P: Longways for as many as will
%R: reel
B: "The Compleat Country Dancing-Master" printed by John Walsh, London ca. 1740
S: 6: CCDM1 http://imslp.org/wiki/The_Compleat_Country_Dancing-Master_(Various) V.1 p.24 #48
Z: 2013 John Chambers <jc:trillian.mit.edu>
N: The tune has many small differences from the CCDTB version, enough to treat them as different settings.
N: The dance differs from the CCDTB version only in spelling.
M: C|
L: 1/8
K: G
% - - - - - - - - - - - - - - - - - - - - - - - - -
|:\
B2d2 d2cB | c2e2 e4 | B2d2 d2cB | c2A2 A4 |\
B2d2 d2cB | c2e2 e4 | BcdB ABcA | B2G2 G4 :|
|:\
B2d2 d2ef | gfga g4  | B2d2 d2cB | c2A2 A4 |\
B2d2 d2ef | gfga g4  | BcdB ABcA | B2G2 G4 :|
% - - - - - - - - - - - - - - - - - - - - - - - - -
%%center Each Strain twice.
% - - - - - - - - Dance description - - - - - - - -
%%begintext align
%% The 1st Man and Wo. set, Foot it and turn .|
%% the 1st Man does the same with the 2d Woman, as at the same time doth his Partner with the 2d Man .|
%% The 1st Couple cross over below the 3d Couple .|
%% Then slip up the Middle to the Top, Foot it and cast off.
%%endtext

%%sep 1 1 500
%%sep 1 1 500
